src/assets/buttons/linkedin.svg

<svg xmlns="http://www.w3.org/2000/svg" width="55" height="55" viewBox="0 0 55 55">
  <g fill="none">
    <rect width="55" height="55" fill="#141414" rx="2"/>
    <g fill="#FFF" transform="matrix(1 0 0 -1 13.176 42.225)">
      <path d="M7.32056983.430428885L7.32056983 19.2128023 1.07765662 19.2128023 1.07765662.430428885 7.32056983.430428885 7.32056983.430428885zM4.19908543 21.7772181C6.37611559 21.7772181 7.73113203 23.2194937 7.73113203 25.0219212 7.69055933 26.8649214 6.37611559 28.2671801 4.24038067 28.2671801 2.10486805 28.2671801.708611955 26.8649214.708611955 25.0219212.708611955 23.2194937 2.06335051 21.7772181 4.15840161 21.7772181L4.19897431 21.7772181 4.19908543 21.7772181zM10.7749726.430428885L17.0178302.430428885 17.0178302 10.9193012C17.0178302 11.4806492 17.0584028 12.0414416 17.2232502 12.4427221 17.6745518 13.5643067 18.7017632 14.7259081 20.4263802 14.7259081 22.6853894 14.7259081 23.5890486 13.0035143 23.5890486 10.4785596L23.5890486.430428885 29.831406.430428885 29.831406 11.1999752C29.831406 16.9690773 26.7514948 19.6535439 22.6441498 19.6535439 19.2762836 19.6535439 17.7977705 17.7710825 16.9763126 16.4888746L17.0179969 16.4888746 17.0179969 19.2128023 10.7751393 19.2128023C10.8570627 17.4503916 10.7751393.430428885 10.7751393.430428885L10.7749726.430428885z"/>
    </g>
  </g>
</svg>

<svg height="55" viewBox="0 0 55 55" width="55" xmlns="http://www.w3.org/2000/svg"><g fill="none"><rect fill="#141414" height="55" rx="2" width="55"/><path d="m7.32056983.43042889v18.78237341h-6.24291321v-18.78237341zm-3.1214844 21.34678921c2.17703016 0 3.5320466 1.4422756 3.5320466 3.2447031-.0405727 1.8430002-1.35501644 3.2452589-3.49075136 3.2452589-2.13551262 0-3.53176871-1.4022587-3.53176871-3.2452589 0-1.8024275 1.35473855-3.2447031 3.44978965-3.2447031h.0405727zm6.57588717-21.34678921h6.2428576v10.48887231c0 .561348.0405726 1.1221404.20542 1.5234209.4513016 1.1215846 1.478513 2.283186 3.20313 2.283186 2.2590092 0 3.1626684-1.7223938 3.1626684-4.2473485v-10.04813071h6.2423574v10.76954631c0 5.7691021-3.0799112 8.4535687-7.1872562 8.4535687-3.3678662 0-4.8463793-1.8824614-5.6678372-3.1646693h.0416843v2.7239277h-6.2428576c.0819234-1.7624107 0-18.78237341 0-18.78237341z" fill="#fff" transform="matrix(1 0 0 -1 13.176 42.225)"/></g></svg>
